packages/react-icons/icons/ping.svg

<svg width="24" height="25" viewBox="0 0 24 25" xmlns="http://www.w3.org/2000/svg"><path fill-rule="evenodd" clip-rule="evenodd" d="M4.10547 12.4993C4.10547 10.6389 4.74902 8.92874 5.82564 7.5794C6.13532 7.19127 6.70909 7.19447 7.06019 7.54557C7.41199 7.89738 7.40523 8.46462 7.10814 8.86372C6.3526 9.87866 5.90547 11.1368 5.90547 12.4993C5.90547 13.8569 6.34934 15.1107 7.09988 16.1238C7.3956 16.5229 7.40165 17.089 7.05038 17.4403C6.69868 17.792 6.12375 17.7946 5.81443 17.4051C4.74455 16.058 4.10547 14.3533 4.10547 12.4993ZM16.9518 17.4373C17.3037 17.7891 17.8789 17.7916 18.1881 17.4018C19.2564 16.0551 19.8944 14.3517 19.8944 12.4993C19.8944 10.6404 19.2519 8.93157 18.1769 7.58275C17.8673 7.1943 17.2933 7.19736 16.942 7.5486C16.5903 7.90028 16.5969 8.46726 16.8937 8.86636C17.6481 9.88085 18.0944 11.1379 18.0944 12.4993C18.0944 13.8557 17.6513 15.1086 16.902 16.1211C16.6066 16.5203 16.6007 17.0861 16.9518 17.4373ZM13.5 12.5C13.5 13.3284 12.8284 14 12 14C11.1716 14 10.5 13.3284 10.5 12.5C10.5 11.6716 11.1716 11 12 11C12.8284 11 13.5 11.6716 13.5 12.5ZM8.01044 9.77598C7.47996 10.5515 7.16968 11.4895 7.16968 12.5C7.16968 13.5106 7.47999 14.4487 8.01053 15.2242C8.29119 15.6344 8.86944 15.6308 9.22091 15.2793C9.57238 14.9279 9.55715 14.3611 9.32353 13.9224C9.09767 13.4982 8.96968 13.0141 8.96968 12.5C8.96968 11.986 9.09765 11.5018 9.32348 11.0777C9.55708 10.639 9.5723 10.0723 9.22084 9.72079C8.86936 9.36931 8.29109 9.36571 8.01044 9.77598ZM15.9899 15.2243C15.7093 15.6345 15.131 15.6309 14.7796 15.2795C14.4281 14.928 14.4433 14.3612 14.677 13.9225C14.9029 13.4983 15.0309 13.0141 15.0309 12.5C15.0309 11.986 14.9029 11.5019 14.6771 11.0777C14.4435 10.639 14.4283 10.0723 14.7797 9.72082C15.1312 9.36934 15.7095 9.36574 15.9901 9.77601C16.5206 10.5515 16.8309 11.4895 16.8309 12.5C16.8309 13.5106 16.5205 14.4488 15.9899 15.2243Z"/></svg>

<svg xmlns="http://www.w3.org/2000/svg" width="24" height="25"><path fill-rule="evenodd" d="M4.105 12.5c0-1.861.644-3.571 1.72-4.92.31-.389.884-.386 1.235-.034.352.351.345.919.048 1.318a6.067 6.067 0 0 0-1.203 3.635c0 1.358.444 2.612 1.195 3.625.296.399.302.965-.05 1.316-.351.352-.926.355-1.236-.035A7.86 7.86 0 0 1 4.105 12.5Zm12.847 4.937c.352.352.927.355 1.236-.035a7.861 7.861 0 0 0 1.706-4.903 7.861 7.861 0 0 0-1.717-4.916c-.31-.389-.884-.386-1.235-.034-.352.351-.345.918-.048 1.317a6.067 6.067 0 0 1 1.2 3.633c0 1.357-.443 2.61-1.192 3.622-.295.4-.301.965.05 1.316ZM13.5 12.5a1.5 1.5 0 1 1-3 0 1.5 1.5 0 0 1 3 0ZM8.01 9.776a4.808 4.808 0 0 0-.84 2.724c0 1.01.31 1.949.84 2.724.281.41.86.407 1.21.055.352-.351.337-.918.104-1.357A3.017 3.017 0 0 1 8.97 12.5c0-.514.128-.998.353-1.422.234-.439.25-1.006-.102-1.357-.352-.352-.93-.355-1.21.055Zm7.98 5.448c-.28.41-.859.407-1.21.056-.352-.352-.337-.919-.103-1.357.226-.425.354-.909.354-1.423s-.128-.998-.354-1.422c-.233-.439-.249-1.006.103-1.357.351-.352.93-.355 1.21.055.53.776.84 1.713.84 2.724 0 1.01-.31 1.949-.84 2.724Z" clip-rule="evenodd"/></svg>
